T: Tommy Peoples'
M: 3/4
L: 1/8
K: Dmaj
|:DF A2 A2|dc B2 B2|ef ge cA|Bc B2 A2|  DF A2 A2|dc B2 B2|ef ge cA|Bc d2 d2:||:fg af dF|Ad c2 B2||:DF AD FA|dc BE GB|ef (3gfe cA|Bc (3BcB A2| - |:DF AD FA|dc BE GB|ed (3cdc (3BcB|AE F2 F2| - - |1 Bc d2 d2:|2 Bc d2 de|||:fg af dF|Ad c2 B2|ef ge cA|Bc (3BcB A2|  fg af dF|Ad (3cdc B2|ef (3gfe cA|1 Bc d2 de:|2 Bc d2 D2||
